X: 3
T: Twiglet
T: Thème Vannitais
C: Tri Yann
R: An Dro
M: 2/4
L: 1/16
K: Emin
Z: ABC transcription by Verge Roller & Hetzel 
r: 32
|: "Em" E2B2 B2AB | "Em" G2E2 E4 | "D" A2AG F2FE | "D" DEFA G2F2 |
"Em" E2B2 B2AB | "Em" G2E2 E4 | "D" A2AG F2FE | "D" DEFD "Em" E4 :|
|: "Em" EFGF EFGF | "Em" EFGA B2E2 | "D" DEFE D2DE | "D" F2A2 G2F2 |
"Em" EFGF EFGF | "Em" EFGA B2E2 | "D" DEFE D2A2 | "D" G2F2 "Em" E4 :|
